src/lib/packages/icons/src/assets/line/arrow-turn-up-right.svg

<svg width="24" height="24" viewBox="0 0 24 24" fill="none" xmlns="http://www.w3.org/2000/svg">
<path d="M21.6919 10.2871C21.6539 10.3791 21.599 10.462 21.53 10.531L17.53 14.531C17.384 14.677 17.192 14.751 17 14.751C16.808 14.751 16.616 14.678 16.47 14.531C16.177 14.238 16.177 13.763 16.47 13.47L19.1899 10.75H6C4.76 10.75 3.75 11.759 3.75 13V18C3.75 18.414 3.414 18.75 3 18.75C2.586 18.75 2.25 18.414 2.25 18V13C2.25 10.932 3.933 9.25002 6 9.25002H19.189L16.469 6.53005C16.176 6.23705 16.176 5.76202 16.469 5.46902C16.762 5.17602 17.237 5.17602 17.53 5.46902L21.53 9.46902C21.599 9.53802 21.6539 9.62091 21.6919 9.71291C21.7679 9.89691 21.7679 10.1031 21.6919 10.2871Z" fill="currentColor"/>
</svg>

<svg xmlns="http://www.w3.org/2000/svg" width="24" height="24" fill="none"><path fill="currentColor" d="M21.692 10.287a.748.748 0 0 1-.162.244l-4 4a.748.748 0 0 1-1.06 0 .75.75 0 0 1 0-1.061l2.72-2.72H6A2.253 2.253 0 0 0 3.75 13v5a.75.75 0 0 1-1.5 0v-5A3.755 3.755 0 0 1 6 9.25h13.189l-2.72-2.72a.75.75 0 0 1 1.061-1.06l4 4a.748.748 0 0 1 .162.818Z"/></svg>
